svg/image_size_select_large.svg

<svg xmlns="http://www.w3.org/2000/svg" viewBox="0 0 24 24"><path d="M21 15h2v2h-2zm0-4h2v2h-2zm2 8h-2v2c1 0 2-1 2-2M13 3h2v2h-2zm8 4h2v2h-2zm0-4v2h2c0-1-1-2-2-2M1 7h2v2H1zm16-4h2v2h-2zm0 16h2v2h-2zM3 3C2 3 1 4 1 5h2zm6 0h2v2H9zM5 3h2v2H5zm-4 8v8a2 2 0 0 0 2 2h12V11zm2 8 2.5-3.21 1.79 2.15 2.5-3.22L13 19z"/></svg>

<?xml version="1.0" encoding="UTF-8"?><!DOCTYPE svg PUBLIC "-//W3C//DTD SVG 1.1//EN" "http://www.w3.org/Graphics/SVG/1.1/DTD/svg11.dtd"><svg xmlns="http://www.w3.org/2000/svg" xmlns:xlink="http://www.w3.org/1999/xlink" version="1.1" id="mdi-image-size-select-large" width="24" height="24" viewBox="0 0 24 24"><path d="M21,15H23V17H21V15M21,11H23V13H21V11M23,19H21V21C22,21 23,20 23,19M13,3H15V5H13V3M21,7H23V9H21V7M21,3V5H23C23,4 22,3 21,3M1,7H3V9H1V7M17,3H19V5H17V3M17,19H19V21H17V19M3,3C2,3 1,4 1,5H3V3M9,3H11V5H9V3M5,3H7V5H5V3M1,11V19A2,2 0 0,0 3,21H15V11H1M3,19L5.5,15.79L7.29,17.94L9.79,14.72L13,19H3Z" /></svg>
